X: 1
T: Hole In The Wall
M: 3/2
L: 1/8
R: three-two
K: Gmaj
|: B3 c Bc d2 A2 d2 | G3 A GA B2 F2 B2 | E3 F EF G2 D2 B2 | G6 F2 G4 :|
g3 f ef g2 f2 e2 | ^d3 e de f2 B2 f2 | g3 f ef g2 f2 e2 | e6 ^d2 e4 |
E3 F EF G2 FG A2 | G2 GA GA B2 AB c2 | B3 c Bc d2 D2 d2 | B6 A2 G4 ||
